X:1
T:Jesus Died for Me
T:Jesus Died for Me
T:James Milton Black
T:Elizabeth Riall, 1906
T:Public Domain Courtesy of the Cyber Hymnal™
C:James Milton Black
Z:Public Domain
Z:Courtesy of the Cyber Hymnal™
%%score 1 ( 2 3 )
L:1/8
Q:1/4=85
M:3/4
K:Ab
V:1 treble 
V:2 bass 
V:3 bass 
V:1
 [Ec]>[DB] | [CA]3 [Ec] [FA]>[DF] | [CE]4 z2 | [Ed]3 [Ec] [EB]>[EA] | [EB]4 [Ec]>[DB] | %5
w: 1.~O, the|depth of love di-|vine!|Je- sus died for|me; O, the|
w: 2.~O, the|price- less gift of|love,|Je- sus died for|me; O, the|
w: 3.~O, the|grace, a- bound- ing|grace,|Je- sus died for|me; O, the|
 [CA]3 [Ec] [FA]>[DF] | [CE]4 z2 | [Ec]3 [Ec] [DB]>[DB] | [CA]4 ||"^Refrain" [CA]2 | %10
w: ho- ly joy that’s|mine!|Je- sus died for|me.||
w: bless- èd life I|have,|Je- sus died for|me.|He|
w: peace, a- bid- ing|peace,|Je- sus died for|me.||
 [DF]>[FA] [Fd]2 [DF]2 | [CE]>[CA] [Ec]4 | [Ee]3 [Ec] [EB]>[=DA] | [EB]4 [EB]2 | %14
w: ||||
w: died for me, He|died for me;|Je- sus died for|me; His|
w: ||||
 [Ec]>[=D=B] [Ec]2 [EA]2 | [FB]>[FA] !fermata![DF]2 [Fd]2 | [Ec]3 [CA] [DB]>[DB] | [CA]4 |] %18
w: ||||
w: life He gave, my|soul to save; For|Je- sus died for|me.|
w: ||||
V:2
 [A,,A,]>[A,,E,] | [A,,E,]3 [A,,A,] [D,A,]>[D,A,] | [A,,A,]4 z2 | [E,G,]3 [E,A,] [E,B,]>[E,C] | %4
 [G,D]4 [A,,A,]>[A,,E,] | [A,,E,]3 [A,,A,] [D,A,]>[D,A,] | [A,,A,]4 z2 | %7
 [E,A,]3 [E,A,] [E,G,]>[E,G,] | [A,,A,]4 || [A,,A,]2 | [D,A,]>[D,A,] [D,A,]2 [D,A,]2 | %11
 [A,,A,]>[A,,A,] [A,,A,]4 | [A,C]3 A, [G,B,]>[F,B,] | [E,G,]4 [E,G,]2 | %14
 [A,,A,]>[A,,A,] [A,,A,]2 [C,A,]2 | [D,D]>[D,D] !fermata![D,A,]2 [D,A,]2 | %16
 [E,A,]3 [E,A,] [E,G,]>[E,G,] | [A,,A,]4 |] %18
V:3
 x2 | x6 | x6 | x6 | x6 | x6 | x6 | x6 | x4 || x2 | x6 | x6 | x3 A, x2 | x6 | x6 | x6 | x6 | x4 |] %18

